X:594
T:Sandy McGregor's
S:Bruce & Emmett's Drummers and Fifers Guide (1862), p. 59
M:2/4
L:1/16
Q:1/4=90
K:Ador
%%MIDI program 72
%%MIDI transpose 8
%%MIDI ratio 3 1
AG|EA^GB A2ge|dBAG E2D2|MG2BG AGED|B,DGB AGED|EAA^G A2=GA|
BA (3(B^cd) efga|(bfg).e dBgB|(AGE^G A2)::.A2|(Aa)(a^g) a(fg)a|b(^ga)=g e2d2|
Mg2bg aged|Bdgb aged|(ea)(a^g) aba=g|ed (3(ef^g) af=ga|b(fg).e dBgB|(AGE^G A2):|
